svgs/gallery.svg

<?xml version="1.0" encoding="utf-8"?>
<!-- Generator: Adobe Illustrator 23.1.1, SVG Export Plug-In . SVG Version: 6.00 Build 0)  -->
<svg version="1.1" xmlns="http://www.w3.org/2000/svg" xmlns:xlink="http://www.w3.org/1999/xlink" x="0px" y="0px"
	 viewBox="0 0 16 16" style="enable-background:new 0 0 16 16;" xml:space="preserve">
<style type="text/css">
	.st0{display:none;}
	.st1{display:inline;}
	.st2{fill:#404040;}
	.st3{fill:#FFFFFF;}
	.st4{fill:none;}
	.st5{opacity:0.3;fill:none;}
	.st6{fill:#FF0000;}
	.st7{fill-rule:evenodd;clip-rule:evenodd;fill:#404040;}
	.st8{fill-rule:evenodd;clip-rule:evenodd;fill:#FFFFFF;}
	.st9{fill-rule:evenodd;clip-rule:evenodd;fill:#2867B2;}
	.st10{fill:#EE1376;}
	.st11{fill:#1DA1F2;}
	.st12{fill:#1877F2;}
	.st13{display:inline;fill:none;}
	.st14{display:inline;fill:#404040;}
	.st15{display:inline;opacity:0.3;fill:none;}
	.st16{display:inline;fill-rule:evenodd;clip-rule:evenodd;fill:#404040;}
	.st17{fill:none;stroke:#404040;stroke-width:2;stroke-linecap:round;}
</style>
<g id="Outter_Container" class="st0">
</g>
<g id="NEW" class="st0">
</g>
<g id="NEW_NO_Container">
	<g id="icon-gallery_2_">
		<g>
			<path class="st2" d="M14.4998,1.9996h-13c-0.8271,0-1.5,0.6729-1.5,1.5v9c0,0.8271,0.6729,1.5,1.5,1.5h13
				c0.8271,0,1.5-0.6729,1.5-1.5v-9C15.9998,2.6724,15.327,1.9996,14.4998,1.9996z M9.9998,7.7203l3.0566,4.2793H6.9432
				L9.9998,7.7203z M4.4856,11.9996H2.868l2.1318-3.1973l0.8544,1.2811L4.4856,11.9996z M13.9998,3.9996v5.8801l-3.1865-4.4611
				c-0.375-0.5254-1.252-0.5254-1.627,0L7.0975,8.343L5.8318,6.4449c-0.3711-0.5566-1.293-0.5566-1.6641,0l-2.168,3.2516v-5.697
				H13.9998z"/>
		</g>
	</g>
</g>
</svg>

<svg id="NEW_NO_Container" data-name="NEW NO Container" xmlns="http://www.w3.org/2000/svg" viewBox="0 0 16 12"><defs><style>.cls-1{fill:#404040;}</style></defs><title>icon-gallery</title><g id="icon-gallery"><path class="cls-1" d="M14.5,2H1.5A1.5016,1.5016,0,0,0,0,3.5v9A1.5017,1.5017,0,0,0,1.5,14h13A1.5016,1.5016,0,0,0,16,12.5v-9A1.5016,1.5016,0,0,0,14.5,2ZM10,7.72,13.0565,12H6.9432ZM4.4856,12H2.868L5,8.8023l.8544,1.2811ZM14,4V9.88L10.8133,5.4185a1.0367,1.0367,0,0,0-1.627,0L7.0975,8.343,5.8318,6.4449a1.0377,1.0377,0,0,0-1.664,0L2,9.6965V4Z" transform="translate(0.0002 -1.9996)"/></g></svg>
